X: 1030
T: Alpine Horn, The
R: reel
M: 4/4
K: Dmajor
|:D3 E D2 F2|D2 G2 D3 A|D2 B2 D4|
D3 E D2 F2|D2 G2 d3 B|A2 F2 D4:|
|:d3 B A2 F2|D2 E2 B2 F2|D2 E6|
d3 B A2 F2|D2 E2 B2 F2|1 G2 D6:|2 A2 D6||

